X: 1
T: Gan Ainm
M: 12/8
L: 1/8
R: slide
K: Dmaj
dcB|A2D FED F2A ABA|G2B F2A E2F G2B|
A2D FED F2A d2f|efe B2c d3:|
def|a2f a2f a2f d2f|e2b b2a b3 baf|
a2f a2f a2f d2f|efe B2c d3:|
